X:1
T:HEINRICH POLKA
T:HEINRICH POLKA
L:1/8
Q:1/4=60
M:2/4
K:F
V:1 treble nm="NONE"
V:1
 FCFG | A2 AF | G2 GF | A2 AF | FCFG | A2 AF | GAGE | F4 :: c2 Ac | BA G2 | FGAF | D2 C2 | c2 Ac | %13
 BA G2 | FAGE | F4!D.C.! :| %16

